X: 36584
T: Shady, The
R: polka
M: 2/4
K: Amixolydian
|:ef/e/ dB|cA AF|G>F GA|BA Bd|
ef/e/ dB|cA AF|G>F GA|BA A2:|
|:G2 GA|BA GE|G2 GA|BA B/c/d|
cA A>B|cA A>B|cd ef|1 g/f/e dB:|2 gb a2||

